_site/images/features/icons/layers.svg

<?xml version="1.0" encoding="UTF-8"?>
<svg width="32px" height="28px" viewBox="0 0 32 28" version="1.1" xmlns="http://www.w3.org/2000/svg" xmlns:xlink="http://www.w3.org/1999/xlink">
    <!-- Generator: Sketch 52.6 (67491) - http://www.bohemiancoding.com/sketch -->
    <title>layers (1)</title>
    <desc>Created with Sketch.</desc>
    <g id="Landing-page" stroke="none" stroke-width="1" fill="none" fill-rule="evenodd">
        <g id="1.3--Features" transform="translate(-175.000000, -4522.000000)" fill="#0B7A76" fill-rule="nonzero">
            <g id="Group-11" transform="translate(174.000000, 4518.000000)">
                <g id="layers-(1)" transform="translate(1.000000, 4.000000)">
                    <path d="M1.31818182,11.6836364 L15.2272727,19.72 C15.705438,19.9960689 16.294562,19.9960689 16.7727273,19.72 L30.6818182,11.6836364 C31.1584397,11.4071563 31.4518071,10.8978257 31.4518071,10.3468182 C31.4518071,9.79581062 31.1584397,9.28648009 30.6818182,9.01 L16.7727273,0.973636364 C16.294562,0.697567499 15.705438,0.697567499 15.2272727,0.973636364 L1.31818182,9.01 C0.841560279,9.28648009 0.548192875,9.79581062 0.548192875,10.3468182 C0.548192875,10.8978257 0.841560279,11.4071563 1.31818182,11.6836364 Z M16,4.09545455 L26.8181818,10.2772727 L16,16.5363636 L5.18181818,10.3390909 L16,4.09545455 Z M29.1363636,16.1345455 L16,23.7227273 L2.86363636,16.1345455 C2.50925027,15.9268766 2.08677216,15.8688272 1.68950843,15.9732177 C1.29224469,16.0776081 0.952879609,16.3358499 0.746363636,16.6909091 C0.539975889,17.047173 0.484279714,17.4710643 0.591630174,17.8685511 C0.698980634,18.2660379 0.960502268,18.6042572 1.31818182,18.8081818 L15.2272727,26.8445455 C15.705438,27.1206143 16.294562,27.1206143 16.7727273,26.8445455 L30.6818182,18.8081818 C31.0394977,18.6042572 31.3010194,18.2660379 31.4083698,17.8685511 C31.5157203,17.4710643 31.4600241,17.047173 31.2536364,16.6909091 C31.0471204,16.3358499 30.7077553,16.0776081 30.3104916,15.9732177 C29.9132278,15.8688272 29.4907497,15.9268766 29.1363636,16.1345455 Z" id="Shape"></path>
                </g>
            </g>
        </g>
    </g>
</svg>

<svg height="28" viewBox="0 0 32 28" width="32" xmlns="http://www.w3.org/2000/svg"><path d="m1.31818182 11.6836364 13.90909088 8.0363636c.4781653.2760689 1.0672893.2760689 1.5454546 0l13.9090909-8.0363636c.4766215-.2764801.7699889-.7858107.7699889-1.3368182 0-.55100758-.2933674-1.06033811-.7699889-1.3368182l-13.9090909-8.03636364c-.4781653-.27606886-1.0672893-.27606886-1.5454546 0l-13.90909088 8.03636364c-.47662154.27648009-.76998894.78581062-.76998894 1.3368182 0 .5510075.2933674 1.0603381.76998894 1.3368182zm14.68181818-7.58818185 10.8181818 6.18181815-10.8181818 6.2590909-10.81818182-6.1972727zm13.1363636 12.03909095-13.1363636 7.5881818-13.13636364-7.5881818c-.35438609-.2076689-.7768642-.2657183-1.17412793-.1613278-.39726374.1043904-.73662882.3626322-.94314479.7176914-.20638775.3562639-.26208393.7801552-.15473347 1.177642s.3688721.7357061.72655165.9396307l13.90909088 8.0363637c.4781653.2760688 1.0672893.2760688 1.5454546 0l13.9090909-8.0363637c.3576795-.2039246.6192012-.5421439.7265516-.9396307.1073505-.3974868.0516543-.8213781-.1547334-1.177642-.206516-.3550592-.5458811-.613301-.9431448-.7176914-.3972638-.1043905-.8197419-.0463411-1.174128.1613278z" fill="#0b7a76"/></svg>
